markup/images/icon25.svg

<svg xmlns="http://www.w3.org/2000/svg" width="45" height="45"><path fill-rule="evenodd" fill="#0D1B27" d="M43.204 31.239c-2.373 5.534-6.405 9.584-11.982 11.964A22.112 22.112 0 0 1 22.463 45c-3.051 0-5.949-.602-8.734-1.797-5.531-2.374-9.581-6.42-11.958-11.964C.58 28.462 0 25.528 0 22.475c0-3.052.58-5.962 1.771-8.739C4.148 8.193 8.198 4.171 13.729 1.797A21.878 21.878 0 0 1 22.463 0c3.051 0 5.972.608 8.759 1.797 5.578 2.38 9.609 6.405 11.982 11.939A21.908 21.908 0 0 1 45 22.475c0 3.053-.602 5.978-1.796 8.764zm-3.593-18.66c-1.771-3.028-4.185-5.435-7.233-7.212-3.029-1.767-6.347-2.659-9.915-2.659-3.567 0-6.864.886-9.89 2.659-3.026 1.772-5.446 4.179-7.209 7.212-1.756 3.023-2.633 6.327-2.633 9.896 0 2.684.506 5.273 1.55 7.706 1.048 2.441 2.448 4.566 4.207 6.326 1.76 1.76 3.863 3.151 6.299 4.21 2.436 1.058 4.995 1.575 7.676 1.575 3.568 0 6.886-.891 9.916-2.658 3.047-1.778 5.467-4.182 7.233-7.213 1.777-3.05 2.656-6.376 2.656-9.946 0-3.569-.885-6.868-2.657-9.896zM28.885 31.141l-7.357-7.361c-.295-.295-.418-.665-.369-1.108 0-.073-.049-.172-.049-.197V9.527c0-.764.64-1.379 1.353-1.379.763 0 1.427.615 1.427 1.379v12.751l6.889 6.943c.529.532.566 1.354 0 1.92-.492.492-1.402.492-1.894 0z"/></svg>

<svg 
 xmlns="http://www.w3.org/2000/svg"
 xmlns:xlink="http://www.w3.org/1999/xlink"
 width="45px" height="45px">
<path fill-rule="evenodd"  fill="rgb(13, 27, 39)"
 d="M43.204,31.239 C40.831,36.773 36.799,40.823 31.222,43.203 C28.435,44.392 25.514,45.000 22.463,45.000 C19.412,45.000 16.514,44.398 13.729,43.203 C8.198,40.829 4.148,36.783 1.771,31.239 C0.580,28.462 -0.000,25.528 -0.000,22.475 C-0.000,19.423 0.580,16.513 1.771,13.736 C4.148,8.193 8.198,4.171 13.729,1.797 C16.513,0.602 19.412,-0.000 22.463,-0.000 C25.514,-0.000 28.435,0.608 31.222,1.797 C36.800,4.177 40.831,8.202 43.204,13.736 C44.399,16.523 45.000,19.423 45.000,22.475 C45.000,25.528 44.398,28.453 43.204,31.239 ZM39.611,12.579 C37.840,9.551 35.426,7.144 32.378,5.367 C29.349,3.600 26.031,2.708 22.463,2.708 C18.896,2.708 15.599,3.594 12.573,5.367 C9.547,7.139 7.127,9.546 5.364,12.579 C3.608,15.602 2.731,18.906 2.731,22.475 C2.731,25.159 3.237,27.748 4.281,30.181 C5.329,32.622 6.729,34.747 8.488,36.507 C10.248,38.267 12.351,39.658 14.787,40.717 C17.223,41.775 19.782,42.292 22.463,42.292 C26.031,42.292 29.349,41.401 32.379,39.634 C35.426,37.856 37.846,35.452 39.612,32.421 C41.389,29.371 42.268,26.045 42.268,22.475 C42.268,18.906 41.383,15.607 39.611,12.579 ZM28.885,31.141 L21.528,23.780 C21.233,23.485 21.110,23.115 21.159,22.672 C21.159,22.599 21.110,22.500 21.110,22.475 L21.110,9.527 C21.110,8.763 21.750,8.148 22.463,8.148 C23.226,8.148 23.890,8.763 23.890,9.527 L23.890,22.278 L30.779,29.221 C31.308,29.753 31.345,30.575 30.779,31.141 C30.287,31.633 29.377,31.633 28.885,31.141 Z"/>
</svg>
